!! 00000] TT[00
!! NN
!!!OTL: Meir aide qinkuai ren
!!!ARE: Asia, China,ÿSichuan, Anxian
!! Ethnic Group: Han
!! II, 246
!!!SCT: C0230
!!!YEM: Copyright 1995, estate of Helmut Schaffrath.
**kern
*ICvox
*Ivox
*M2/4
*k[f#]
*G:
{4a
4b
=1
8.ee
16dd#
16ee
16dd
16ee
16dd
=2
4.b
16a
16g
=3
2e}
=4
{4a
4b
=5
8.ee
16dd#
16ee
16dd
16ee
16dd
=6
2b}
=7
{4a
4e
=8
4b
[4a
=9
2a]
=10
4ffx#
4r}
=11
{2a
=12
8dd
8b
8b
8ee
=13
4.dd
24b
24a
24g
=14
4e}
{8a
8b
=15
8a
16g
[16e
8e]
16a
16b
=16
8g
8a
4e}
=17
{8r
16e
16e
8a
8a
=18
8d
16e
16g
8d
8d}
=19
{8r
16e
16e
8e
16g
16e
=20
8e
8a
4e
=21
8dd
8b
4ee
=22
4.dd
24b
24a
24g
=23
2e}
=24
{8r
16g
16e
8e
16g#
16g
=25
8d
16e
16g
8d
8B
=26
4ffx#
4r}
==
!!!AGN: Shange. Biaoda aiqing
!! Text- aber nicht Melodie- Variante.
!!    Mehrere Fermaten, Glissandi, Verzierungen und Dynamikbezeichnungen.
!!!ONB: ESAC (Essen Associative Code) Database: CHINA
!!!AMT: simple duple
!!!AIN: vox
!!!EED: Helmut Schaffrath
!!!EEV: 1.0
*-
!!!ONB: Tied note syntax fixed by Craig Sapp, 2004/05/03/
